icons/banana.svg

<svg width="24" height="24" viewBox="0 0 24 24" fill="none" xmlns="http://www.w3.org/2000/svg">
<path d="M14.0636 12.3452C11.7202 15.6714 6.56325 18.8556 3.13194 17.579C1.83935 17.0983 1.64287 19.8699 2.59874 20.53C6.41286 23.1638 11.6876 21.9809 15.3826 19.173C17.3415 17.6843 19.1169 15.8191 19.5388 13.7596M22 18.5361C22 16.632 21.071 14.8734 19.5388 13.7596C18.9754 13.4881 20.1976 11.4277 19.6291 8.98187C19 5.5 16.7357 3.07863 16.5282 2.43384C16.196 1.4041 13.0849 2.38001 13.6944 3.56424C15.6914 7.44957 16.3849 11.8536 14.0636 12.3452M14.0636 12.3452C16.2267 11.8036 17.394 12.7573 19.5388 13.7596M14.0636 12.3452H11.8352C9.91223 12.3452 8.02545 12.883 6.37655 13.9012" stroke="black" stroke-width="2" stroke-linecap="round" stroke-linejoin="round"/>
</svg>

<svg xmlns="http://www.w3.org/2000/svg" width="24" height="24" viewBox="0 0 24 24" fill="none" stroke="currentColor" stroke-width="2" stroke-linecap="round" stroke-linejoin="round">
<path d="M14.064 12.345c-2.344 3.326-7.5 6.51-10.932 5.234-1.293-.48-1.49 2.29-.533 2.951 3.814 2.634 9.089 1.45 12.784-1.357 1.959-1.489 3.734-3.354 4.156-5.413M22 18.536c0-1.904-.929-3.663-2.461-4.776-.564-.272.659-2.332.09-4.778C19 5.5 16.736 3.079 16.53 2.434c-.333-1.03-3.444-.054-2.835 1.13 1.997 3.886 2.69 8.29.37 8.781m0 0c2.163-.541 3.33.412 5.475 1.415m-5.475-1.415h-2.229c-1.923 0-3.81.538-5.458 1.556"/>
</svg>
